X:104
T:Big Bowwow.
M:6/8
L:1/8
K:G
c|B2c d2=f|e2e d2c|B2c d2=f|e2e d2
c|B2c d2d |def g2e|dcB cBA |G2G G2::
  B2G GAB |c2c c3 |B2G GAB |A2A A3 |\
  B2G GAB |c2c c2e|dcB cBA |G2G G3:|
